!!!COM: Claude Goudimel
!!!OMD: Psalm 47: Or sus, tous humains
**kern	**kern	**kern	**kern
*part4	*part3	*part2	*part1
*staff4	*staff3	*staff2	*staff1
*clefF4	*clefGv2	*clefG2	*clefG2
*k[f#c#]	*k[f#c#]	*k[f#c#]	*k[f#c#]
!!LO:TX:omd:t=
*M4/4	*M4/4	*M4/4	*M4/4
=1	=1	=1	=1
2D	2F#	2d	2a
2D	2D	2A	2f#X
=2	=2	=2	=2
4BB	4F#	4B	4d
4AA	4A	4c#X	4e
4D	4A	4d	4f#X
[4GG	[4B	[4d	[4g
=3	=3	=3	=3
4GG]	4B]	4d]	4g]
4D	4A	4d	4f#X
4AA	4A	4c#X	4e
4AA	4A	4c#X	4e
=4	=4	=4	=4
2D	2F#	2d	2d
2r	2r	2r	2r
=5	=5	=5	=5
2D	2d	2f#X	2a
2F#	2c#	2f#X	2a
=6	=6	=6	=6
4E	4e	4g	4b
4A	4e	4a	4cc#X
4D	4f#	4a	4dd
[4D	[4d	[4f#X	[4a
=7	=7	=7	=7
4D]	4d]	4f#]	4a]
4BB	4d	4f#X	4b
4E	4B	4e	4g
4AA	4c#	4e	4a
=8	=8	=8	=8
2D	2A	2d	2f#X
2r	2r	2r	2r
=9	=9	=9	=9
2D	2A	2d	2d
2AA	2A	2c#X	2e
=10	=10	=10	=10
4D	4A	4d	4f#X
4GG	4B	4d	4g
4D	4A	4d	4f#X
[4AA	[4A	[4c#X	[4e
=11	=11	=11	=11
4AA]	4A]	4c#]	4e]
4BB	4F#	4B	4d
4GG	4G	4B	4d
4AA	4E	4A	4c#X
=12	=12	=12	=12
2D	2F#	2A	2d
2r	2r	2r	2r
=13	=13	=13	=13
2D	2d	2f#X	2a
2GG	2d	2g	2b
=14	=14	=14	=14
4D	4d	4f#X	4a
4E	4B	4e	4g
4BB	4B	4e-X	4f#X
[4BB	[4B	[4e-X	[4f#X
=15	=15	=15	=15
4BB]	4B]	4e-]	4f#]
4Cn	4G	4e	4e
4BB	4B	4e-X	4f#X
4E	4B	4e	4g
=16	=16	=16	=16
2D	2d	2f#X	2a
2r	2r	2r	2r
=17	=17	=17	=17
2D	2A	2f#X	2dd
2AA	2e	2a	2cc#X
=18	=18	=18	=18
4E	4e	4g	4b
4E	4e	4g	4b
4F#	4c#	4f#X	4a
[4BB	[4d	[4f#X	[4b
=19	=19	=19	=19
4BB]	4d]	4f#]	4b]
4D	4d	4f#X	4a
4GG	4B	4d	4g
4D	4A	4d	4f#X
=20	=20	=20	=20
2AA	2A	2c#X	2e
2r	2r	2r	2r
=21	=21	=21	=21
2D	2F#	2A	2d
2D	2A	2d	2f#X
=22	=22	=22	=22
4D	4F#	4d	4a
4GG	4B	4d	4g
4D	4A	4d	4f#X
[4AA	[4A	[4c#X	[4e
=23	=23	=23	=23
4AA]	4A]	4c#]	4e]
4BB	4F#	4B	4d
4GG	4G	4B	4d
4AA	4E	4A	4c#X
=24	=24	=24	=24
1D	1F#	1A	1d
==	==	==	==
*-	*-	*-	*-
!!!software: music21 v.9.7.1
!!!software: music21 v.8.3.0
!!!RDF**kern: > = above
!!!RDF**kern: < = below
